src/assets/tokens/unibtc.svg

<svg width="151" height="151" viewBox="0 0 151 151" fill="none" xmlns="http://www.w3.org/2000/svg">
<circle cx="75.4678" cy="75.1277" r="75" fill="url(#paint0_linear_4242_80542)"/>
<path d="M66.9747 105.476L58.395 103.304L55.2361 115.778L63.8158 117.951L66.9747 105.476Z" fill="#664AED"/>
<path d="M81.8384 109.235L73.2588 107.062L70.0999 119.537L78.6795 121.709L81.8384 109.235Z" fill="#146AF4"/>
<path d="M100.776 34.3509L92.1963 32.1783L89.0374 44.653L97.617 46.8256L100.776 34.3509Z" fill="#146AF4"/>
<path d="M85.9761 30.5561L77.3965 28.3835L74.2376 40.8582L82.8172 43.0308L85.9761 30.5561Z" fill="#664AED"/>
<path d="M85.8383 110.292L41.5317 99.0522L44.1923 88.5185L88.4988 99.758C92.2996 100.735 96.1004 98.6178 96.9692 95.0885C97.838 91.5591 95.5032 87.9212 91.7024 86.9439L64.0108 79.9395L66.6714 69.4059L94.3629 76.4102C104.354 78.9622 110.598 88.6271 108.209 97.9119C105.82 107.197 95.7747 112.789 85.784 110.237L85.8383 110.292Z" fill="#9077ED"/>
<path d="M82.8064 43.0685L68.3315 39.4031L52.5104 101.882L66.9852 105.547L82.8064 43.0685Z" fill="#664AED"/>
<path d="M87.4176 80.2621L59.726 73.2578L62.3866 62.7241L90.0782 69.7285C93.879 70.7058 97.6798 68.5882 98.5485 65.0589C99.4173 61.5296 97.0825 57.8917 93.2817 56.9143L54.6221 47.1408L57.2826 36.6072L95.9423 46.3807C105.933 48.9326 112.177 58.5975 109.788 67.8824C107.399 77.1672 97.354 82.7598 87.3633 80.2078L87.4176 80.2621Z" fill="#6FF1E1"/>
<path d="M82.7424 43.0229L68.2676 39.3575L65.242 51.3059L79.7168 54.9713L82.7424 43.0229Z" fill="#664AED"/>
<defs>
<linearGradient id="paint0_linear_4242_80542" x1="0.467773" y1="75.1277" x2="150.468" y2="75.1277" gradientUnits="userSpaceOnUse">
<stop stop-color="#4473F0" stop-opacity="0.5"/>
<stop offset="1" stop-color="#4473F0" stop-opacity="0"/>
</linearGradient>
</defs>
</svg>

<svg xmlns="http://www.w3.org/2000/svg" fill="none" viewBox="0 0 151 151"><circle cx="75.468" cy="75.128" r="75" fill="url(#a)"/><path fill="#664AED" d="m66.975 105.476-8.58-2.172-3.159 12.474 8.58 2.173z"/><path fill="#146AF4" d="m81.838 109.235-8.58-2.173-3.158 12.475 8.58 2.172zm18.938-74.885-8.58-2.172-3.159 12.475 8.58 2.173z"/><path fill="#664AED" d="m85.976 30.556-8.58-2.172-3.158 12.474 8.58 2.173z"/><path fill="#9077ED" d="m85.838 110.292-44.306-11.24 2.66-10.534L88.5 99.759c3.8.977 7.601-1.14 8.47-4.67.869-3.529-1.466-7.167-5.267-8.144L64.012 79.94l2.66-10.533 27.692 7.004c9.991 2.552 16.235 12.217 13.846 21.502s-12.434 14.877-22.425 12.325z"/><path fill="#664AED" d="m82.806 43.069-14.474-3.666-15.822 62.479 14.475 3.665z"/><path fill="#6FF1E1" d="m87.418 80.262-27.692-7.004 2.66-10.534 27.692 7.005c3.801.977 7.602-1.14 8.47-4.67.87-3.53-1.466-7.167-5.266-8.145l-38.66-9.773 2.66-10.534 38.66 9.774c9.991 2.552 16.235 12.216 13.846 21.501S97.354 82.76 87.363 80.208z"/><path fill="#664AED" d="m82.742 43.023-14.474-3.666-3.026 11.949 14.475 3.665z"/><defs><linearGradient id="a" x1=".468" x2="150.468" y1="75.128" y2="75.128" gradientUnits="userSpaceOnUse"><stop stop-color="#4473F0" stop-opacity=".5"/><stop offset="1" stop-color="#4473F0" stop-opacity="0"/></linearGradient></defs></svg>
